svgs/sharp-regular/chart-network.svg

<svg xmlns="http://www.w3.org/2000/svg" viewBox="0 0 640 512"><!--! Font Awesome Pro 6.6.0 by @fontawesome - https://fontawesome.com License - https://fontawesome.com/license (Commercial License) Copyright 2024 Fonticons, Inc. --><path d="M288 0L160 0l0 128 79.8 0L261 181.1c-34.9 21.3-60 57.1-67 98.9l-66 0 0-40L0 240 0 368l128 0 0-40 66 0c11.4 68.1 70.7 120 142 120c43.8 0 83-19.5 109.4-50.4l66.6 40 0 74.4 128 0 0-128-124 0-45.8-27.5c6.4-16.3 9.9-34 9.9-52.5c0-23.2-5.5-45.2-15.3-64.6L529.3 192 640 192l0-128L512 64l0 81.2-75.7 55.5C410.4 175.5 375 160 336 160c-10.5 0-20.6 1.1-30.5 3.2L288 119.4 288 0zm48 208a96 96 0 1 1 0 192 96 96 0 1 1 0-192z"/></svg>

<svg xmlns="http://www.w3.org/2000/svg" viewBox="0 0 640 512"><!--! Font Awesome Pro 6.4.2 by @fontawesome - https://fontawesome.com License - https://fontawesome.com/license (Commercial License) Copyright 2023 Fonticons, Inc. --><path d="M288 0H160V128h79.8L261 181.1c-34.9 21.3-60 57.1-67 98.9H128V240H0V368H128V328h66c11.4 68.1 70.7 120 142 120c43.8 0 83-19.5 109.4-50.4l66.6 40V512H640V384H516l-45.8-27.5c6.4-16.3 9.9-34 9.9-52.5c0-23.2-5.5-45.2-15.3-64.6L529.3 192H640V64H512v81.2l-75.7 55.5C410.4 175.5 375 160 336 160c-10.5 0-20.6 1.1-30.5 3.2L288 119.4V0zm48 208a96 96 0 1 1 0 192 96 96 0 1 1 0-192z"/></svg>
